src/assets/img/globalping/polygons_4.svg

<svg width="289" height="288" viewBox="0 0 289 288" fill="none" xmlns="http://www.w3.org/2000/svg">
<path fill-rule="evenodd" clip-rule="evenodd" d="M283.578 39.1514L221.077 3.06605C219.22 1.99426 216.933 1.99426 215.077 3.06606L152.575 39.1514C150.719 40.2232 149.575 42.204 149.575 44.3476V116.518C149.575 118.662 150.719 120.643 152.575 121.714L215.077 157.8C216.933 158.872 219.22 158.872 221.077 157.8L283.578 121.714C285.435 120.643 286.578 118.662 286.578 116.518V44.3476C286.578 42.204 285.435 40.2232 283.578 39.1514ZM222.077 1.334C219.602 -0.0950606 216.552 -0.0950564 214.077 1.33401L151.575 37.4194C149.1 38.8484 147.575 41.4894 147.575 44.3476V116.518C147.575 119.376 149.1 122.017 151.575 123.446L214.077 159.532C216.552 160.961 219.602 160.961 222.077 159.532L284.578 123.446C287.054 122.017 288.578 119.376 288.578 116.518V44.3476C288.578 41.4894 287.054 38.8484 284.578 37.4193L222.077 1.334ZM136.578 39.8802L74.0767 3.79487C72.2203 2.72307 69.9331 2.72308 68.0767 3.79487L5.57507 39.8802C3.71867 40.952 2.57507 42.9328 2.57507 45.0764V117.247C2.57507 119.391 3.71867 121.371 5.57508 122.443L68.0767 158.529C69.9331 159.6 72.2203 159.6 74.0767 158.529L136.578 122.443C138.435 121.371 139.578 119.391 139.578 117.247V45.0764C139.578 42.9328 138.435 40.952 136.578 39.8802ZM75.0767 2.06282C72.6015 0.633757 69.5519 0.633761 67.0767 2.06282L4.57507 38.1482C2.09986 39.5772 0.575073 42.2183 0.575073 45.0764V117.247C0.575073 120.105 2.09987 122.746 4.57508 124.175L67.0767 160.261C69.5519 161.69 72.6015 161.69 75.0767 160.261L137.578 124.175C140.054 122.746 141.578 120.105 141.578 117.247V45.0764C141.578 42.2183 140.054 39.5772 137.578 38.1482L75.0767 2.06282ZM147.547 130.431L210.048 166.516C211.905 167.588 213.048 169.569 213.048 171.712V243.883C213.048 246.027 211.905 248.007 210.048 249.079L147.547 285.164C145.69 286.236 143.403 286.236 141.547 285.164L79.0451 249.079C77.1886 248.007 76.045 246.027 76.045 243.883V171.712C76.045 169.569 77.1886 167.588 79.045 166.516L141.547 130.431C143.403 129.359 145.69 129.359 147.547 130.431ZM140.547 128.699C143.022 127.27 146.072 127.27 148.547 128.699L211.048 164.784C213.524 166.213 215.048 168.854 215.048 171.712V243.883C215.048 246.741 213.524 249.382 211.048 250.811L148.547 286.897C146.072 288.326 143.022 288.326 140.547 286.897L78.0451 250.811C75.5698 249.382 74.045 246.741 74.045 243.883V171.712C74.045 168.854 75.5698 166.213 78.045 164.784L140.547 128.699Z" fill="url(#paint0_radial_5900_10424)"/>
<path fill-rule="evenodd" clip-rule="evenodd" d="M283.578 39.1514L221.077 3.06605C219.22 1.99426 216.933 1.99426 215.077 3.06606L152.575 39.1514C150.719 40.2232 149.575 42.204 149.575 44.3476V116.518C149.575 118.662 150.719 120.643 152.575 121.714L215.077 157.8C216.933 158.872 219.22 158.872 221.077 157.8L283.578 121.714C285.435 120.643 286.578 118.662 286.578 116.518V44.3476C286.578 42.204 285.435 40.2232 283.578 39.1514ZM222.077 1.334C219.602 -0.0950606 216.552 -0.0950564 214.077 1.33401L151.575 37.4194C149.1 38.8484 147.575 41.4894 147.575 44.3476V116.518C147.575 119.376 149.1 122.017 151.575 123.446L214.077 159.532C216.552 160.961 219.602 160.961 222.077 159.532L284.578 123.446C287.054 122.017 288.578 119.376 288.578 116.518V44.3476C288.578 41.4894 287.054 38.8484 284.578 37.4193L222.077 1.334ZM136.578 39.8802L74.0767 3.79487C72.2203 2.72307 69.9331 2.72308 68.0767 3.79487L5.57507 39.8802C3.71867 40.952 2.57507 42.9328 2.57507 45.0764V117.247C2.57507 119.391 3.71867 121.371 5.57508 122.443L68.0767 158.529C69.9331 159.6 72.2203 159.6 74.0767 158.529L136.578 122.443C138.435 121.371 139.578 119.391 139.578 117.247V45.0764C139.578 42.9328 138.435 40.952 136.578 39.8802ZM75.0767 2.06282C72.6015 0.633757 69.5519 0.633761 67.0767 2.06282L4.57507 38.1482C2.09986 39.5772 0.575073 42.2183 0.575073 45.0764V117.247C0.575073 120.105 2.09987 122.746 4.57508 124.175L67.0767 160.261C69.5519 161.69 72.6015 161.69 75.0767 160.261L137.578 124.175C140.054 122.746 141.578 120.105 141.578 117.247V45.0764C141.578 42.2183 140.054 39.5772 137.578 38.1482L75.0767 2.06282ZM147.547 130.431L210.048 166.516C211.905 167.588 213.048 169.569 213.048 171.712V243.883C213.048 246.027 211.905 248.007 210.048 249.079L147.547 285.164C145.69 286.236 143.403 286.236 141.547 285.164L79.0451 249.079C77.1886 248.007 76.045 246.027 76.045 243.883V171.712C76.045 169.569 77.1886 167.588 79.045 166.516L141.547 130.431C143.403 129.359 145.69 129.359 147.547 130.431ZM140.547 128.699C143.022 127.27 146.072 127.27 148.547 128.699L211.048 164.784C213.524 166.213 215.048 168.854 215.048 171.712V243.883C215.048 246.741 213.524 249.382 211.048 250.811L148.547 286.897C146.072 288.326 143.022 288.326 140.547 286.897L78.0451 250.811C75.5698 249.382 74.045 246.741 74.045 243.883V171.712C74.045 168.854 75.5698 166.213 78.045 164.784L140.547 128.699Z" fill="url(#paint1_radial_5900_10424)"/>
<defs>
<radialGradient id="paint0_radial_5900_10424" cx="0" cy="0" r="1" gradientUnits="userSpaceOnUse" gradientTransform="translate(83.3042 356.025) rotate(-65.5093) scale(333.506 283.055)">
<stop stop-color="#17D4A7" stop-opacity="0.5"/>
<stop offset="1" stop-color="#17D4A7" stop-opacity="0"/>
</radialGradient>
<radialGradient id="paint1_radial_5900_10424" cx="0" cy="0" r="1" gradientUnits="userSpaceOnUse" gradientTransform="translate(67.0977 124.525) rotate(67.1566) scale(109.053 75.0833)">
<stop stop-color="#174BFF"/>
<stop offset="1" stop-color="#174BFF" stop-opacity="0"/>
</radialGradient>
</defs>
</svg>

<svg xmlns="http://www.w3.org/2000/svg" width="289" height="288" fill="none">
  <path fill="url(#a)" fill-rule="evenodd" d="M283.578 39.151 221.077 3.066a6 6 0 0 0-6 0l-62.502 36.085a6 6 0 0 0-3 5.197v72.17a6 6 0 0 0 3 5.196l62.502 36.086a5.999 5.999 0 0 0 6 0l62.501-36.086a5.997 5.997 0 0 0 3-5.196v-72.17a5.999 5.999 0 0 0-3-5.197ZM222.077 1.334a8 8 0 0 0-8 0l-62.502 36.085a8 8 0 0 0-4 6.929v72.17a8 8 0 0 0 4 6.928l62.502 36.086a8 8 0 0 0 8 0l62.501-36.086a7.998 7.998 0 0 0 4-6.928v-72.17c0-2.859-1.524-5.5-4-6.929L222.077 1.334ZM136.578 39.88 74.077 3.795a6 6 0 0 0-6 0L5.575 39.88a6 6 0 0 0-3 5.196v72.171a6 6 0 0 0 3 5.196l62.502 36.086a6.004 6.004 0 0 0 6 0l62.501-36.086a5.998 5.998 0 0 0 3-5.196v-72.17a5.999 5.999 0 0 0-3-5.197ZM75.077 2.063a8 8 0 0 0-8 0L4.575 38.148a8 8 0 0 0-4 6.928v72.171a8 8 0 0 0 4 6.928l62.502 36.086a8 8 0 0 0 8 0l62.501-36.086a7.998 7.998 0 0 0 4-6.928v-72.17c0-2.859-1.524-5.5-4-6.929L75.077 2.063Zm72.47 128.368 62.501 36.085a6 6 0 0 1 3 5.196v72.171a5.998 5.998 0 0 1-3 5.196l-62.501 36.085a5.999 5.999 0 0 1-6 0l-62.502-36.085a6 6 0 0 1-3-5.196v-72.171a6 6 0 0 1 3-5.196l62.502-36.085a5.999 5.999 0 0 1 6 0Zm-7-1.732a8 8 0 0 1 8 0l62.501 36.085a7.998 7.998 0 0 1 4 6.928v72.171a7.998 7.998 0 0 1-4 6.928l-62.501 36.086a8 8 0 0 1-8 0l-62.502-36.086a8 8 0 0 1-4-6.928v-72.171a8 8 0 0 1 4-6.928l62.502-36.085Z" clip-rule="evenodd"/>
  <path fill="url(#b)" fill-rule="evenodd" d="M283.578 39.151 221.077 3.066a6 6 0 0 0-6 0l-62.502 36.085a6 6 0 0 0-3 5.197v72.17a6 6 0 0 0 3 5.196l62.502 36.086a5.999 5.999 0 0 0 6 0l62.501-36.086a5.997 5.997 0 0 0 3-5.196v-72.17a5.999 5.999 0 0 0-3-5.197ZM222.077 1.334a8 8 0 0 0-8 0l-62.502 36.085a8 8 0 0 0-4 6.929v72.17a8 8 0 0 0 4 6.928l62.502 36.086a8 8 0 0 0 8 0l62.501-36.086a7.998 7.998 0 0 0 4-6.928v-72.17c0-2.859-1.524-5.5-4-6.929L222.077 1.334ZM136.578 39.88 74.077 3.795a6 6 0 0 0-6 0L5.575 39.88a6 6 0 0 0-3 5.196v72.171a6 6 0 0 0 3 5.196l62.502 36.086a6.004 6.004 0 0 0 6 0l62.501-36.086a5.998 5.998 0 0 0 3-5.196v-72.17a5.999 5.999 0 0 0-3-5.197ZM75.077 2.063a8 8 0 0 0-8 0L4.575 38.148a8 8 0 0 0-4 6.928v72.171a8 8 0 0 0 4 6.928l62.502 36.086a8 8 0 0 0 8 0l62.501-36.086a7.998 7.998 0 0 0 4-6.928v-72.17c0-2.859-1.524-5.5-4-6.929L75.077 2.063Zm72.47 128.368 62.501 36.085a6 6 0 0 1 3 5.196v72.171a5.998 5.998 0 0 1-3 5.196l-62.501 36.085a5.999 5.999 0 0 1-6 0l-62.502-36.085a6 6 0 0 1-3-5.196v-72.171a6 6 0 0 1 3-5.196l62.502-36.085a5.999 5.999 0 0 1 6 0Zm-7-1.732a8 8 0 0 1 8 0l62.501 36.085a7.998 7.998 0 0 1 4 6.928v72.171a7.998 7.998 0 0 1-4 6.928l-62.501 36.086a8 8 0 0 1-8 0l-62.502-36.086a8 8 0 0 1-4-6.928v-72.171a8 8 0 0 1 4-6.928l62.502-36.085Z" clip-rule="evenodd"/>
  <defs>
    <radialGradient id="a" cx="0" cy="0" r="1" gradientTransform="rotate(-65.509 318.354 113.269) scale(333.506 283.055)" gradientUnits="userSpaceOnUse">
      <stop stop-color="#17D4A7" stop-opacity=".5"/>
      <stop offset="1" stop-color="#17D4A7" stop-opacity="0"/>
    </radialGradient>
    <radialGradient id="b" cx="0" cy="0" r="1" gradientTransform="matrix(42.33588 100.4999 -69.19447 29.14837 67.098 124.525)" gradientUnits="userSpaceOnUse">
      <stop stop-color="#174BFF"/>
      <stop offset="1" stop-color="#174BFF" stop-opacity="0"/>
    </radialGradient>
  </defs>
</svg>
